Sources/FrostedUI/Resources/Icons.xcassets/trophy24.imageset/trophy-24.svg

<svg width="24" height="24" viewBox="0 0 24 24" fill="none" xmlns="http://www.w3.org/2000/svg" data-fui-icon="true">
  <path
    d="M8 22.25H16M12 17.25V22.25M12 17.25C15.7279 17.25 18.75 14.2279 18.75 10.5V3.40306C18.75 2.90431 18.3457 2.5 17.8469 2.5H6.15306C5.65431 2.5 5.25 2.90431 5.25 3.40306V10.5C5.25 14.2279 8.27205 17.25 12 17.25ZM18.75 11.25H19.682C21.3764 11.25 22.75 9.87643 22.75 8.18204V6.28398C22.75 5.43679 22.0632 4.75 21.216 4.75H18.75M5.25 11.25H4.31796C2.62357 11.25 1.25 9.87643 1.25 8.18204V6.28398C1.25 5.43679 1.93679 4.75 2.78398 4.75H5.25"
    stroke="currentColor"
    stroke-width="1.5"
    stroke-linecap="round"
    stroke-linejoin="round"
  />
</svg>

<svg xmlns="http://www.w3.org/2000/svg" width="24" height="24" fill="none" data-fui-icon="true" viewBox="0 0 24 24"><path stroke="currentColor" stroke-linecap="round" stroke-linejoin="round" stroke-width="1.5" d="M8 22.25h8m-4-5v5m0-5a6.75 6.75 0 0 0 6.75-6.75V3.403a.903.903 0 0 0-.903-.903H6.153a.903.903 0 0 0-.903.903V10.5A6.75 6.75 0 0 0 12 17.25m6.75-6h.932a3.07 3.07 0 0 0 3.068-3.068V6.284c0-.847-.687-1.534-1.534-1.534H18.75m-13.5 6.5h-.932A3.07 3.07 0 0 1 1.25 8.182V6.284c0-.847.687-1.534 1.534-1.534H5.25"/></svg>
